X:1
T:Sir George Abercrombie Bart. of Birkenbog & Forglen's
C:Alexander Walker
M:C
L:1/8
R:Strathspey
B:Walker - Collection of Strathspeys, Reels, Marches etc. (1866, p. 6)
Z:AK/Fiddler's Companion
F: http://digital.nls.uk/special-collections-of-printed-music/archive/105875180?mode=zoom
K:A
E|A<Ac>A e>Ac>A|(A/B/c/d/) e>c f>BB>c|A<Ac>A e>Ac>B|
A>FE<C (A,2 A,>)E|[A,2E2A2] (c/B/A) e>Ac>A|f>de>c (B2 B/c/d)|
e>cB>c A>cF>A|E/F/G/A/ BG (A2A)||g|{g}a>e (f/e/).d/.c/ e<AA>c|
A/B/c/d/ e>c {c}(B2 B>)g|a>e (f/e/).d/.c/ e<c A>C|D<FE>C A,2 A,>g|
a>e (f/e/).d/.c/ e<AA>e|A/B/c/d/ e<c {c}(B2 B>)c|A>cB>d c>ed>f|a/g/f/e/ b>g (a2a)||

